!!!!SEGMENT: pl-kk--kk-i-88--003-008_golabek-jakub--missa-3-agnus-dei.krn
!!!cenid: 17xx:2589
!!!COM: Gołąbek, Jakub
!!!COM-rismID: pe30008748
!!!CDT: 1739-1789/03/30
!!!CNT: Polish
!!!OPR: Missa 3
!!!OTL: Agnus Dei
!!!OMV: 008
!!!PDT:
!!!AGN: Sacred; Mass
!!!YEC: Copyright 2022 Narodowy Instytut Fryderyka Chopina (https://polishscores.org)
!!!YEM: License CC-BY-4.0 (https://creativecommons.org/licenses/by/4.0)
!!!SMS-siglum: PL-Kk
!!!SMS-shelfmark: Kk.I.88
!!!SMS-variant:
!!!SMS-altvar:
!!!SMS-shelfwork: 003-008 M
!!!NIFC-rismSourceID: 1001164072
!!!NIFC-rismChildID: 1001164082
!!!NIFC-islandoraID:
!!!URL-pdf-islandora: https://repozytorium.nifc.pl/islandora/object/pl-kk%3A3086/datastream/PDF/view
!!!URL-scan: https://polish.musicsources.pl/pl/lokalizacje/galeria/rekopisy/6148-missa/4 @EN{Scan on Polish Music Sources Website} @PL{Skany w portalu Dziedzictwo Muzyki Polskiej w otwartym dostępie}
!!!IIIF:
!!!ONB-nifc: UWAGA: C - f. 6r-7v; A - f. 14r-15v; T - f. 22r-23v; B - f. 30r-31v; B rip - f. 35r-36v. Proszę uwzględniać B rip. Części Mszy: 1. Kyrie, 2. Christe, 3. Et in terra, 4. Quoniam, 5. Sanctus, 6. Osanna, 7. Benedictus, 8. Agnus Dei.
!!!AIN: 1 alto 2 bass 1 soprn 1 tenor
!!!key: C
**kern	**text	**kern	**text	**kern	**text	**kern	**text	**kern	**text
*part5	*part5	*part4	*part4	*part3	*part3	*part2	*part2	*part1	*part1
*staff5	*staff5	*staff4	*staff4	*staff3	*staff3	*staff2	*staff2	*staff1	*staff1
*IGripn	*	*	*	*	*	*	*	*	*
*ICvox	*	*ICvox	*	*ICvox	*	*ICvox	*	*ICvox	*
*Ibass	*	*Ibass	*	*Itenor	*	*Ialto	*	*Isoprn	*
*I"Baſso E ripieno	*	*I"Baſso	*	*I"Tenore	*	*I"Alto	*	*I"Canto	*
*I'B rip	*	*I'B	*	*I'T	*	*I'A	*	*I'S	*
*clefF4	*	*clefF4	*	*clefC4	*	*clefC3	*	*clefC1	*
*C:	*	*C:	*	*C:	*	*C:	*	*C:	*
*k[]	*	*k[]	*	*k[]	*	*k[]	*	*k[]	*
*M3/2	*	*M3/2	*	*M3/2	*	*M3/2	*	*M3/2	*
=1	=1	=1	=1	=1	=1	=1	=1	=1	=1
*2\right	*	*2\right	*	*2\right	*	*2\right	*	*2\right	*
2C/	A-	2C/	A-	2c\	A-	2g\	A-	2ee\	A-
2E\	.	2E\	.	2G/	.	2e\	.	2cc\	.
4G\	.	4G\	.	2G/	-gnus	2d\	-gnus	2b\	-gnus
8A\L	-gnus	8A\L	-gnus	.	.	.	.	.	.
8B\J	.	8B\J	.	.	.	.	.	.	.
=2	=2	=2	=2	=2	=2	=2	=2	=2	=2
2c\	De-	2c\	De-	2G/	De-	4e\	De-	4cc\	De-
.	.	.	.	.	.	4f\	.	4dd\	.
2C/	-i	2C/	-i	2G/	-i	2g\	-i	2ee\	-i
4C/	qui	4C/	qui	2G/	qui	2e\	qui	2cc\	qui
4E/	.	4E/	.	.	.	.	.	.	.
=3	=3	=3	=3	=3	=3	=3	=3	=3	=3
2G\	tol-	2G\	tol-	2G/	tol-	2e\	tol-	2cc\	tol-
2G\	-lis	2G\	-lis	2G/	-lis	2d\	-lis	2b\	-lis
4G\	pec-	4G\	pec-	2B\	qui	2f\	qui	2dd\	qui
8A\L	.	8A\L	.	.	.	.	.	.	.
8B\J	.	8B\J	.	.	.	.	.	.	.
=4	=4	=4	=4	=4	=4	=4	=4	=4	=4
2c\	-ca-	2c\	-ca-	2G/	tol-	8g\L	tol-	8ee\L	tol-
.	.	.	.	.	.	8f\	.	8dd\	.
.	.	.	.	.	.	8e\	.	8cc\	.
.	.	.	.	.	.	8f\J	.	8dd\J	.
2C/	-ta	2C/	-ta	2G/	-lis	2e\	-lis	2cc\	-lis
2C/	pec-	2C/	pec-	2c\	pec-	2g\	pec-	2ee\	pec-
=5	=5	=5	=5	=5	=5	=5	=5	=5	=5
2C/	-ca-	2C/	-ca-	2c\	-ca-	2g\	-ca-	2ee\	-ca-
2F\	.	2F\	.	2A\	.	4a\	.	4ff\	.
.	.	.	.	.	.	4g\	.	4ee\	.
2F#X\	-ta	2F#X\	-ta	2A\	-ta	4f\	-ta	4dd\	-ta
.	.	.	.	.	.	4e\	.	4cc\	.
!	!	!	!	!	!	!LO:LB:g=original	!	!LO:LB:g=original	!
=6	=6	=6	=6	=6	=6	=6	=6	=6	=6
2G\	mun-	2G\	mun-	2G/	mun-	2e\	mun-	2cc\	mun-
2G\	-di	2G\	-di	2G/	-di	2d\	-di	2b\	-di
2r	.	2r	.	2r	.	2r	.	2r	.
!LO:LB:g=original	!	!LO:LB:g=original	!	!LO:LB:g=original	!	!	!	!	!
=7	=7	=7	=7	=7	=7	=7	=7	=7	=7
4G\	mi-	4G\	mi-	4B\	mi-	1g	mi-	1dd	mi-
4A\	.	4A\	.	4c\	.	.	.	.	.
4G\	.	4G\	.	4B\	.	.	.	.	.
4A\	.	4A\	.	4c\	.	.	.	.	.
4B\	-se-	4B\	-se-	4d\	-se-	2g\	-se-	4dd\	-se-
4c\	.	4c\	.	4e\	.	.	.	4cc\	.
!!linebreak:original
=8	=8	=8	=8	=8	=8	=8	=8	=8	=8
4d\	-re-	4d\	-re-	4f\	-re-	1g	-re-	4b\	-re-
4c\	.	4c\	.	4e\	.	.	.	4cc\	.
4B\	.	4B\	.	4d\	.	.	.	2dd\	.
4G\	.	4G\	.	4B\	.	.	.	.	.
2c\	-re	2c\	-re	2G/	-re	2g\	-re	2ee\	-re
=9	=9	=9	=9	=9	=9	=9	=9	=9	=9
1G	mi-	1G	mi-	1B	mi-	4f\	mi-	4dd\	mi-
.	.	.	.	.	.	4e\	.	4cc\	.
.	.	.	.	.	.	4d\	.	4b\	.
.	.	.	.	.	.	4e\	.	4cc\	.
2F\	-se-	2F\	-se-	2B\	-se-	4f\	-se-	4dd\	-se-
.	.	.	.	.	.	4d\	.	4b\	.
=10	=10	=10	=10	=10	=10	=10	=10	=10	=10
4E\	-re-	4E\	-re-	4c\	-re-	4g\	-re-	4cc\	-re-
4F\	.	4F\	.	4d\	.	4a\	.	4b\	.
4E\	.	4E\	.	4c\	.	4g\	.	4cc\	.
4D\	.	4D\	.	4B\	.	4f\	.	4dd\	.
2C/	-re	2C/	-re	2G/	-re	2e\	-re	2cc\	-re
=11	=11	=11	=11	=11	=11	=11	=11	=11	=11
4F\	no-	4F\	no-	2A/	no-	2f\	no-	2dd\	no-
4D\	.	4D\	.	.	.	.	.	.	.
2G\	.	2G\	.	1G	.	2e\	.	2cc\	.
2GG/	.	2GG/	.	.	.	2d\	.	2b\	.
=12	=12	=12	=12	=12	=12	=12	=12	=12	=12
1C	-bis	1C	-bis	1G	-bis	1e	-bis	1cc	-bis
2r	.	2r	.	2r	.	2r	.	2r	.
!	!	!	!	!LO:LB:g=original	!	!LO:LB:g=original	!	!LO:LB:g=original	!
=13	=13	=13	=13	=13	=13	=13	=13	=13	=13
4G\	mi-	4G\	mi-	4B\	mi-	1g	mi-	1dd	mi-
4A\	.	4A\	.	4c\	.	.	.	.	.
4G\	.	4G\	.	4B\	.	.	.	.	.
4A\	.	4A\	.	4c\	.	.	.	.	.
4B\	-se-	4B\	-se-	4d\	-se-	2g\	-se-	4dd\	-se-
4c\	.	4c\	.	4e\	.	.	.	4cc\	.
!LO:LB:g=original	!	!LO:LB:g=original	!	!	!	!	!	!	!
=14	=14	=14	=14	=14	=14	=14	=14	=14	=14
4d\	-re-	4d\	-re-	4f\	-re-	1g	-re-	4b\	-re-
4c\	.	4c\	.	4e\	.	.	.	4cc\	.
4B\	.	4B\	.	4d\	.	.	.	2dd\	.
4G\	.	4G\	.	4B\	.	.	.	.	.
2c\	-re	2c\	-re	2G/	-re	2g\	-re	2ee\	-re
=15	=15	=15	=15	=15	=15	=15	=15	=15	=15
1G	mi-	1G	mi-	1B	mi-	4f\	mi-	4dd\	mi-
.	.	.	.	.	.	4e\	.	4cc\	.
.	.	.	.	.	.	4d\	.	4b\	.
.	.	.	.	.	.	4e\	.	4cc\	.
2F\	-se-	2F\	-se-	2B\	-se-	4f\	-se-	4dd\	-se-
.	.	.	.	.	.	4d\	.	4b\	.
=16	=16	=16	=16	=16	=16	=16	=16	=16	=16
4E\	-re-	4E\	-re-	4c\	-re-	4g\	-re-	4cc\	-re-
4F\	.	4F\	.	4d\	.	4a\	.	4b\	.
4E\	.	4E\	.	4c\	.	4g\	.	4cc\	.
4D\	.	4D\	.	4B\	.	4f\	.	4dd\	.
2C/	-re	2C/	-re	2G/	-re	2e\	-re	2cc\	-re
!!pagebreak:original
=17	=17	=17	=17	=17	=17	=17	=17	=17	=17
4F\	no-	4F\	no-	2A/	no-	2f\	no-	2dd\	no-
4D\	.	4D\	.	.	.	.	.	.	.
2G\	.	2G\	.	1G	.	2e\	.	2cc\	.
2GG/	.	2GG/	.	.	.	2d\	.	2b\	.
=18	=18	=18	=18	=18	=18	=18	=18	=18	=18
1C	-bis	1C	-bis	1.G	-bis	1e	-bis	1cc	-bis
2r	.	2r	.	.	.	2r	.	2r	.
!LO:LB:g=original	!	!LO:LB:g=original	!	!LO:LB:g=original	!	!LO:LB:g=original	!	!LO:LB:g=original	!
=19||	=19||	=19||;;	=19||	=19||;;	=19||	=19||;;	=19||	=19||;;	=19||
*M2/2	*	*M2/2	*	*M2/2	*	*M2/2	*	*M2/2	*
*met(c|)	*	*met(c|)	*	*met(c|)	*	*met(c|)	*	*met(c|)	*
4C/	A-	4C/	A-	2.G/	A-	4e\	A-	4cc\	A-
4D/	.	4D/	.	.	.	4f\	.	4b\	.
4E\	.	4E\	.	.	.	4g\	.	4cc\	.
4F\	-gnus	4F\	-gnus	4G/	-gnus	8f\L	-gnus	8dd\L	-gnus
.	.	.	.	.	.	8e\J	.	8cc\J	.
=20	=20	=20	=20	=20	=20	=20	=20	=20	=20
4G\	De-	4G\	De-	4G/	De-	4e\	De-	4cc\	De-
4G\	-i	4G\	-i	4G/	-i	4d\	-i	4b\	-i
4r	.	4r	.	4r	.	4r	.	4r	.
4G\	qui	4G\	qui	4G/	qui	8d\L	qui	8b\L	qui
.	.	.	.	.	.	8e\J	.	8cc\J	.
=21	=21	=21	=21	=21	=21	=21	=21	=21	=21
4G\	tol-	4G\	tol-	4B\	tol-	4f\	tol-	4dd\	tol-
4A\	.	4A\	.	4c\	.	4e\	-lis	4cc\	-lis
4B\	-lis	4B\	-lis	4d\	-lis	4d\	.	4b\	.
4G\	pec-	4G\	pec-	4B\	pec-	4f\	pec-	4dd\	pec-
=22	=22	=22	=22	=22	=22	=22	=22	=22	=22
4c\	-ca-	4c\	-ca-	4G/	-ca-	8e\L	-ca-	8cc\L	-ca-
.	.	.	.	.	.	8f\J	.	8dd\J	.
4C/	-ta,	4C/	-ta,	4c\	-ta	4g\	-ta,	4ee\	-ta,
4r	.	4r	.	4r	.	4r	.	4r	.
4C/	pec-	4C/	pec-	4G/	pec-	4g\	pec-	4ee\	pec-
!	!	!	!	!	!	!LO:LB:g=original	!	!LO:LB:g=original	!
=23	=23	=23	=23	=23	=23	=23	=23	=23	=23
4C/	-ca-	4C/	-ca-	4G/	-ca-	8g\L	-ca-	8ee\L	-ca-
.	.	.	.	.	.	8e\J	.	8cc\J	.
4C/	-ta	4C/	-ta	4G/	-ta	8a\L	-ta	8ff\L	-ta
.	.	.	.	.	.	8g\J	.	8ee\J	.
4F\	mun-	4F\	mun-	2A/	mun-	8g\L	mun-	8ee\L	mun-
.	.	.	.	.	.	8f\	.	8dd\	.
4F#X\	.	4F#X\	.	.	.	8f\	.	8dd\	.
.	.	.	.	.	.	8e\J	.	8cc\J	.
=24	=24	=24	=24	=24	=24	=24	=24	=24	=24
.	.	.	.	.	.	8qqe/	.	8qqcc/	.
1G	-di	1G	-di	1G	-di	1d	-di	1b	-di
!LO:TX:b:t=Dona nobis ut Kyrie	!	!LO:TX:b:t=Dona nobis ut Kyrie	!	!LO:TX:b:t=Dona nobis ut Kyrie	!	!LO:TX:a:t=Dona nobis ut Kyrie	!	!LO:TX:a:t=Dona nobis ut Kyrie	!
==	==	==;;	==	==;;	==	==;;	==	==;;	==
*-	*-	*-	*-	*-	*-	*-	*-	*-	*-
!!!system-decoration: [s1,s2,s3,s4]s5
!!!ENC: Berenika Jozajtis
!!!END: 2024-02-28
!!!EED: Andrzej Kubiczek
!!!EEV: 2025-02-16
